X:41
T: Der Werber und der Jude
N: Q0131B
O: Osteuropa, UdSSR, Wolga - Gebiet, Rothammel
N: Transkription einer Tonaufnahme. Verzierungen (Nachschlaege) .
R: Ballade, Braut - Werbung, Erpressung
M: none
L: 1/8
K: G
D | DEFGAB | G2z
D | DEFGAB | G2z2
A2 | Bdcd | B2A2
Bdcc | BBA
B | GGFD | E2D2
